X:20030
T:Twenty-Ninth of May
T:Jovial Crew,The
R:Reel
C:Trad. Playford 1686
O:England
Z:Paul Hardy's Session Tunebook 2022 (see www.paulhardy.net). Creative Commons cc by-nc-sa licenced.
M:4/4
L:1/8
Q:1/4=180
K:D
"D"a2 f2 "G"g2 f2|"A7"edcB "D"A2 f2|"G"g2 B2 "A7"c3 B/c/|1"D"d4 d4:|2"D"d2 A2 F2 ED||
|:"D"F2 A4 GF|"G"G2 B4 B2|"A"cd e2 cd e2|c2 Bc A2 de|
"D"f2 ef d2 ef|"G"g2 fg "Em"e2 fg|"D"a2 B2 "A7"c3 B/c/|1"D"d2 A2 F2 ED:|2"D"d4 d4|]

